; generated by PrusaSlicer 2.2.0+linux-x64 on 2020-11-28 at 03:02:36 UTC

; 

; external perimeters extrusion width = 0.45mm
; perimeters extrusion width = 0.45mm
; infill extrusion width = 0.45mm
; solid infill extrusion width = 0.45mm
; top infill extrusion width = 0.45mm
; first layer extrusion width = 0.48mm

M107
G28
; set and wait on hot end temperature
M104 S210 T0
M109 S210 T0
; set and wait on bed temperature
M140 S60
M190 S60
; probe/adjust z-offset and pause 4s
G29 P0
G0 X0 Y0 Z60 F3600
G4 S4
; extrude a strip outside of the perimeter
G92 E0
G1 X-54 Y0 Z0.32 F2700
G3 X0 Y-54 I54 E20 F900
G92 E0
G21 ; set units to millimeters
G90 ; use absolute coordinates
M82 ; use absolute distances for extrusion
G92 E0
M900  K0.34 ; 0.4mm nozzle
G1 E-4.00000 F3600.00000
G92 E0
G1 Z0.200 F7200.000
G1 Z0.400
G1 X-45.826 Y25.184
G1 Z0.200
G1 E4.00000 F3600.00000
G1 F1200.000
G1 X-46.946 Y22.742 E4.09567
G1 X-47.330 Y20.150 E4.18902
G1 X-47.330 Y-20.593 E5.64011
G1 X-46.955 Y-23.139 E5.73179
G1 X-45.975 Y-25.349 E5.81789
G1 X-45.673 Y-25.823 E5.83790
G1 X-44.315 Y-27.392 E5.91181
G1 X-43.807 Y-27.833 E5.93577
G1 X-41.741 Y-29.116 E6.02239
G1 X-39.521 Y-29.783 E6.10494
G1 X-38.950 Y-29.865 E6.12550
G1 X38.894 Y-29.866 E8.89803
G1 X39.520 Y-29.783 E8.92050
G1 X41.803 Y-29.089 E9.00550
G1 X43.831 Y-27.817 E9.09077
G1 X44.273 Y-27.439 E9.11147
G1 X45.831 Y-25.606 E9.19716
G1 X46.831 Y-23.477 E9.28092
G1 X47.010 Y-22.897 E9.30256
G1 X47.322 Y-20.709 E9.38128
G1 X47.325 Y20.249 E10.84005
G1 X46.951 Y22.722 E10.92914
G1 X45.970 Y24.931 E11.01524
G1 X45.673 Y25.395 E11.03484
G1 X44.313 Y26.967 E11.10888
G1 X43.807 Y27.405 E11.13271
G1 X41.745 Y28.687 E11.21920
G1 X39.521 Y29.354 E11.30188
G1 X38.950 Y29.437 E11.32243
G1 X-38.952 Y29.437 E14.09703
G1 X-39.505 Y29.359 E14.11691
G1 X-41.492 Y28.776 E14.19068
G1 X-42.086 Y28.511 E14.21383
G1 X-44.097 Y27.184 E14.29964
G1 X-45.787 Y25.230 E14.39168
G1 E11.19168 F3600.00000
G1 F5760.000
G1 X-46.328 Y24.069 E10.43168
G1 E10.39168 F3600.00000
G92 E0
G1 Z0.400 F7200.000
G1 X-31.984 Y-18.918
G1 Z0.200
G1 E4.00000 F3600.00000
G1 F1200.000
G1 X-33.016 Y-20.706 E4.07353
G1 X-31.716 Y-21.457 E4.12701
G1 X-31.578 Y-20.500 E4.16143
G1 X-31.801 Y-18.953 E4.21708
G1 X-31.925 Y-18.929 E4.22160
G1 X-31.805 Y-17.733 F7200.000
G1 F1200.000
G1 X-33.613 Y-20.866 E4.35044
G1 X-31.891 Y-21.860 E4.42126
G1 X-31.332 Y-21.860 E4.44117
G1 X-31.137 Y-20.500 E4.49010
G1 X-31.410 Y-18.596 E4.55861
G1 X-31.780 Y-17.788 E4.59027
G1 X-31.911 Y-18.118 F7200.000
G1 E1.39027 F3600.00000
G1 F5760.000
G1 X-32.435 Y-18.887 E0.63027
G1 E0.59027 F3600.00000
G92 E0
G1 Z0.400 F7200.000
G1 X-41.809 Y-20.426
G1 Z0.200
G1 E4.00000 F3600.00000
G1 F1200.000
G1 X-39.732 Y-16.829 E4.14796
G1 X-37.307 Y-18.229 E4.24768
G1 X-35.297 Y-14.747 E4.39087
G1 X-36.995 Y-14.248 E4.45393
G1 X-38.793 Y-14.248 E4.51795
G1 X-40.518 Y-14.755 E4.58198
G1 X-42.030 Y-15.727 E4.64601
G1 X-43.208 Y-17.085 E4.71004
G1 X-43.954 Y-18.721 E4.77407
G1 X-44.210 Y-20.500 E4.83809
G1 X-43.954 Y-22.279 E4.90212
G1 X-43.208 Y-23.915 E4.96615
G1 X-42.030 Y-25.273 E5.03018
G1 X-40.518 Y-26.245 E5.09421
G1 X-38.793 Y-26.752 E5.15824
G1 X-36.995 Y-26.752 E5.22226
G1 X-35.270 Y-26.245 E5.28629
G1 X-33.595 Y-25.168 E5.35723
G1 X-41.757 Y-20.456 E5.69289
G1 X-41.212 Y-20.266 F7200.000
G1 F1200.000
G1 X-39.572 Y-17.426 E5.80971
G1 X-37.147 Y-18.826 E5.90944
G1 X-35.147 Y-15.362 E6.05190
G1 X-32.423 Y-16.934 E6.16391
G1 X-32.282 Y-16.763 E6.17181
G1 X-33.469 Y-15.393 E6.23638
G1 X-35.087 Y-14.353 E6.30489
G1 X-36.933 Y-13.811 E6.37339
G1 X-38.856 Y-13.811 E6.44189
G1 X-40.701 Y-14.353 E6.51040
G1 X-42.320 Y-15.393 E6.57891
G1 X-43.579 Y-16.847 E6.64741
G1 X-44.378 Y-18.596 E6.71591
G1 X-44.652 Y-20.500 E6.78442
G1 X-44.378 Y-22.404 E6.85292
G1 X-43.579 Y-24.153 E6.92143
G1 X-42.320 Y-25.607 E6.98993
G1 X-40.701 Y-26.647 E7.05844
G1 X-38.856 Y-27.189 E7.12694
G1 X-36.933 Y-27.189 E7.19545
G1 X-35.087 Y-26.647 E7.26395
G1 X-33.469 Y-25.607 E7.33245
G1 X-32.891 Y-24.940 E7.36386
G1 X-33.310 Y-24.828 E7.37929
G1 X-41.160 Y-20.296 E7.70212
G1 X-41.559 Y-20.068 F7200.000
G1 E4.50212 F3600.00000
G1 F5760.000
G1 X-40.540 Y-19.176 E3.74212
G1 E3.70212 F3600.00000
G92 E0
G1 Z0.400 F7200.000
G1 X-43.279 Y-17.295
G1 Z0.200
G1 E4.00000 F3600.00000
G1 F1200.000
G1 X-41.864 Y-15.880 E4.07362
G1 X-40.426 Y-14.956 E4.13650
G1 X-40.250 Y-14.904 E4.14326
G1 X-43.418 Y-18.072 E4.30809
G1 X-43.743 Y-18.783 E4.33684
G1 X-43.785 Y-19.077 E4.34779
G1 X-39.346 Y-14.638 E4.57873
G1 X-38.762 Y-14.467 E4.60114
G1 X-38.536 Y-14.467 E4.60944
G1 X-43.892 Y-19.823 E4.88811
G1 X-43.989 Y-20.500 E4.91327
G1 X-43.982 Y-20.551 E4.91518
G1 X-37.701 Y-14.270 E5.24197
G1 E2.04197 F3600.00000
G1 F5760.000
G1 X-38.606 Y-15.175 E1.28197
G1 E1.24197 F3600.00000
G92 E0
G1 Z0.400 F7200.000
G1 X-35.113 Y-14.866
G1 Z0.200
G1 E4.00000 F3600.00000
G1 F1200.000
G1 X-33.739 Y-15.704 E4.04956
G1 X-33.629 Y-15.795 E4.05394
G1 X-33.300 Y-16.066 E4.06229
G1 X-32.972 Y-16.337 E4.06588
G1 E0.86588 F3600.00000
G1 F5760.000
G1 X-33.300 Y-16.066 E0.61284
G1 E0.06588 F3600.00000
G92 E0
G1 Z0.400 F7200.000
G1 X-31.715 Y-19.701
G1 Z0.200
G1 E4.00000 F3600.00000
G1 F1200.000
G1 X-32.668 Y-20.654 E4.05449
G1 X-32.223 Y-20.911 E4.07526
G1 X-31.627 Y-20.315 E4.10936
G1 E0.90936 F3600.00000
G1 F5760.000
G1 X-32.223 Y-20.911 E0.40867
G1 X-32.601 Y-20.693 E0.14936
G1 E0.10936 F3600.00000
G92 E0
G1 Z0.400 F7200.000
G1 X-34.218 Y-24.834
G1 Z0.200
G1 E4.00000 F3600.00000
G1 F1200.000
G1 X-35.456 Y-26.072 E4.06442
G1 X-36.360 Y-26.337 E4.09907
G1 X-34.767 Y-24.744 E4.18197
G1 X-35.172 Y-24.510 E4.19916
G1 X-37.194 Y-26.533 E4.30440
G1 X-37.833 Y-26.533 E4.32789
G1 X-35.576 Y-24.277 E4.44528
G1 X-35.981 Y-24.043 E4.46247
G1 X-38.471 Y-26.533 E4.59203
G1 X-38.762 Y-26.533 E4.60271
G1 X-39.031 Y-26.454 E4.61303
G1 X-36.386 Y-23.809 E4.75063
G1 X-36.791 Y-23.576 E4.76782
G1 X-39.524 Y-26.309 E4.91004
G1 X-40.018 Y-26.164 E4.92896
G1 X-37.196 Y-23.342 E5.07580
G1 X-37.600 Y-23.108 E5.09299
G1 X-40.493 Y-26.001 E5.24351
G1 X-40.882 Y-25.751 E5.26050
G1 X-38.005 Y-22.875 E5.41018
G1 X-38.410 Y-22.641 E5.42738
G1 X-41.271 Y-25.502 E5.57622
G1 X-41.659 Y-25.252 E5.59321
G1 X-38.815 Y-22.407 E5.74122
G1 X-39.219 Y-22.173 E5.75841
G1 X-42.010 Y-24.964 E5.90357
G1 X-42.306 Y-24.622 E5.92023
G1 X-39.624 Y-21.940 E6.05975
G1 X-40.029 Y-21.706 E6.07694
G1 X-42.602 Y-24.279 E6.21083
G1 X-42.899 Y-23.937 E6.22748
G1 X-40.434 Y-21.472 E6.35573
G1 X-40.838 Y-21.239 E6.37292
G1 X-43.139 Y-23.539 E6.49260
G1 X-43.339 Y-23.101 E6.51033
G1 X-41.243 Y-21.005 E6.61936
G1 X-41.648 Y-20.771 E6.63656
G1 X-43.539 Y-22.662 E6.73495
G1 X-43.739 Y-22.224 E6.75267
G1 X-42.053 Y-20.538 E6.84042
G1 X-42.107 Y-20.506 E6.84273
G1 X-41.352 Y-19.198 E6.89829
G1 X-43.822 Y-21.668 E7.02678
G1 X-43.902 Y-21.110 E7.04752
G1 X-40.480 Y-17.688 E7.22556
G1 X-39.812 Y-16.530 E7.27473
G1 X-39.501 Y-16.709 E7.28790
G1 X-37.259 Y-14.467 E7.40457
G1 X-37.027 Y-14.467 E7.41311
G1 X-36.713 Y-14.559 E7.42515
G1 X-39.097 Y-16.943 E7.54918
G1 X-38.692 Y-17.177 E7.56637
G1 X-36.219 Y-14.704 E7.69502
G1 X-35.726 Y-14.849 E7.71394
G1 X-38.287 Y-17.410 E7.84720
G1 X-37.882 Y-17.644 E7.86440
G1 X-36.319 Y-16.080 E7.94575
G1 X-37.191 Y-17.591 E8.00992
G1 X-37.621 Y-18.022 E8.03233
G1 E4.83233 F3600.00000
G1 F5760.000
G1 X-37.191 Y-17.591 E4.47068
G1 X-36.855 Y-17.010 E4.07233
G1 E4.03233 F3600.00000
G92 E0
G1 Z0.400 F7200.000
G1 X36.665 Y-20.625
G1 Z0.200
G1 E4.00000 F3600.00000
G1 F1200.000
G1 X34.665 Y-17.161 E4.14247
G1 X33.413 Y-17.884 E4.19396
G1 X35.413 Y-21.348 E4.33643
G1 X32.244 Y-23.177 E4.46673
G1 X-32.244 Y-23.177 E6.76357
G1 X-35.413 Y-21.348 E6.89388
G1 X-33.413 Y-17.884 E7.03634
G1 X-34.665 Y-17.161 E7.08784
G1 X-36.665 Y-20.625 E7.23030
G1 X-39.089 Y-19.225 E7.33003
G1 X-39.412 Y-19.784 E7.35303
G1 X-32.801 Y-23.601 E7.62492
G1 X-31.974 Y-23.823 E7.65544
G1 X31.990 Y-23.818 E9.93360
G1 X32.801 Y-23.601 E9.96351
G1 X39.412 Y-19.784 E10.23540
G1 X39.089 Y-19.225 E10.25840
G1 X36.717 Y-20.595 E10.35599
G1 X36.825 Y-20.028 F7200.000
G1 F1200.000
G1 X34.825 Y-16.564 E10.49846
G1 X32.815 Y-17.724 E10.58109
G1 X34.815 Y-21.188 E10.72355
G1 X32.127 Y-22.740 E10.83412
G1 X-32.127 Y-22.740 E13.12262
G1 X-34.815 Y-21.188 E13.23318
G1 X-32.815 Y-17.724 E13.37565
G1 X-34.825 Y-16.564 E13.45828
G1 X-36.825 Y-20.028 E13.60074
G1 X-39.249 Y-18.628 E13.70047
G1 X-40.009 Y-19.944 E13.75461
G1 X-32.970 Y-24.008 E14.04411
G1 X-32.031 Y-24.260 E14.07873
G1 X32.048 Y-24.256 E16.36100
G1 X32.970 Y-24.008 E16.39500
G1 X40.009 Y-19.944 E16.68451
G1 X39.249 Y-18.628 E16.73865
G1 X36.877 Y-19.998 E16.83624
G1 X36.450 Y-20.168 F7200.000
G1 X36.569 Y-20.503
G1 F1200.000
G1 X35.847 Y-21.226 E16.87624
G1 X35.780 Y-21.111 E16.88144
G1 X35.591 Y-21.220 E16.89000
G1 X35.438 Y-20.955 E16.90198
G1 X36.176 Y-20.216 E16.94288
G1 X35.928 Y-19.786 E16.96236
G1 X35.189 Y-20.524 E17.00325
G1 X34.940 Y-20.093 E17.02273
G1 X35.679 Y-19.355 E17.06362
G1 X35.430 Y-18.924 E17.08310
G1 X34.692 Y-19.662 E17.12399
G1 X34.443 Y-19.232 E17.14347
G1 X35.181 Y-18.493 E17.18436
G1 X34.933 Y-18.062 E17.20384
G1 X34.194 Y-18.801 E17.24473
G1 X33.946 Y-18.370 E17.26421
G1 X34.828 Y-17.487 E17.31308
G1 E14.11308 F3600.00000
G1 F5760.000
G1 X33.946 Y-18.370 E13.37211
G1 X33.962 Y-18.398 E13.35308
G1 E13.31308 F3600.00000
G92 E0
G1 Z0.400 F7200.000
G1 X39.062 Y-19.614
G1 Z0.200
G1 E4.00000 F3600.00000
G1 F1200.000
G1 X36.637 Y-21.014 E4.04764
G1 X35.763 Y-21.518 F7200.000
G1 F1200.000
G1 X32.677 Y-23.300 E4.10826
G1 X32.504 Y-23.372 E4.11145
G1 X32.330 Y-23.444 E4.11389
G1 X32.125 Y-23.474 E4.11577
G1 X31.948 Y-23.498 E4.11874
G1 X-31.931 Y-23.500 E5.18223
G1 X-32.117 Y-23.475 E5.18534
G1 X-32.303 Y-23.451 E5.18779
G1 X-32.504 Y-23.372 E5.18974
G1 X-32.677 Y-23.300 E5.19293
G1 X-35.763 Y-21.518 E5.25355
G1 X-36.637 Y-21.014 F7200.000
G1 F1200.000
G1 X-39.062 Y-19.614 E5.30119
G1 E2.10119 F3600.00000
G1 F5760.000
G1 X-37.953 Y-20.254 E1.34119
G1 E1.30119 F3600.00000
G92 E0
G1 Z0.400 F7200.000
G1 X-36.044 Y-19.593
G1 Z0.200
G1 E4.00000 F3600.00000
G1 F1200.000
G1 X-34.157 Y-17.706 E4.10798
G1 X-33.712 Y-17.963 E4.12878
G1 X-36.464 Y-20.716 E4.28629
G1 X-36.275 Y-20.825 E4.29511
G1 X-36.500 Y-21.213 E4.31327
G1 X-36.347 Y-21.301 E4.32039
G1 X-34.132 Y-19.086 E4.44719
G1 E1.24719 F3600.00000
G1 F5760.000
G1 X-35.037 Y-19.991 E0.48719
G1 E0.44719 F3600.00000
G92 E0
G1 Z0.400 F7200.000
G1 X31.716 Y-21.457
G1 Z0.200
G1 E4.00000 F3600.00000
G1 F1200.000
G1 X33.016 Y-20.706 E4.05348
G1 X31.984 Y-18.918 E4.12701
G1 X31.801 Y-18.953 E4.13366
G1 X31.578 Y-20.500 E4.18932
G1 X31.707 Y-21.397 E4.22160
G1 X31.332 Y-21.860 F7200.000
G1 F1200.000
G1 X31.891 Y-21.860 E4.24151
G1 X33.613 Y-20.866 E4.31233
G1 X31.805 Y-17.733 E4.44117
G1 X31.410 Y-18.596 E4.47496
G1 X31.137 Y-20.500 E4.54347
G1 X31.324 Y-21.801 E4.59027
G1 X31.680 Y-21.663 F7200.000
G1 E1.39027 F3600.00000
G1 F5760.000
G1 X31.891 Y-21.860 E1.05149
G1 X32.506 Y-21.505 E0.63027
G1 E0.59027 F3600.00000
G92 E0
G1 Z0.400 F7200.000
G1 X33.595 Y-25.168
G1 Z0.200
G1 E4.00000 F3600.00000
G1 F1200.000
G1 X35.270 Y-26.245 E4.07094
G1 X36.995 Y-26.752 E4.13496
G1 X38.793 Y-26.752 E4.19899
G1 X40.518 Y-26.245 E4.26302
G1 X42.030 Y-25.273 E4.32705
G1 X43.208 Y-23.915 E4.39108
G1 X43.954 Y-22.279 E4.45510
G1 X44.210 Y-20.500 E4.51913
G1 X43.954 Y-18.721 E4.58316
G1 X43.208 Y-17.085 E4.64719
G1 X42.030 Y-15.727 E4.71122
G1 X40.518 Y-14.755 E4.77525
G1 X38.793 Y-14.248 E4.83927
G1 X36.995 Y-14.248 E4.90330
G1 X35.297 Y-14.747 E4.96636
G1 X37.307 Y-18.229 E5.10954
G1 X39.732 Y-16.829 E5.20927
G1 X41.809 Y-20.426 E5.35723
G1 X33.647 Y-25.138 E5.69289
G1 E2.49289 F3600.00000
G1 F5760.000
G1 X34.705 Y-25.859 E1.73289
G1 E1.69289 F3600.00000
G92 E0
G1 Z0.400 F7200.000
G1 X35.147 Y-15.362
G1 Z0.200
G1 E4.00000 F3600.00000
G1 F1200.000
G1 X37.147 Y-18.826 E4.14247
G1 X39.572 Y-17.426 E4.24219
G1 X41.212 Y-20.266 E4.35902
G1 X33.310 Y-24.828 E4.68399
G1 X32.891 Y-24.940 E4.69941
G1 X33.469 Y-25.607 E4.73082
G1 X35.087 Y-26.647 E4.79933
G1 X36.933 Y-27.189 E4.86783
G1 X38.856 Y-27.189 E4.93633
G1 X40.701 Y-26.647 E5.00484
G1 X42.320 Y-25.607 E5.07335
G1 X43.579 Y-24.153 E5.14185
G1 X44.378 Y-22.404 E5.21035
G1 X44.652 Y-20.500 E5.27886
G1 X44.378 Y-18.596 E5.34736
G1 X43.579 Y-16.847 E5.41587
G1 X42.320 Y-15.393 E5.48437
G1 X40.701 Y-14.353 E5.55288
G1 X38.856 Y-13.811 E5.62138
G1 X36.933 Y-13.811 E5.68989
G1 X35.087 Y-14.353 E5.75839
G1 X33.469 Y-15.393 E5.82689
G1 X32.282 Y-16.763 E5.89146
G1 X32.423 Y-16.934 E5.89936
G1 X35.095 Y-15.392 E6.00924
G1 X35.498 Y-15.170 F7200.000
G1 X35.113 Y-14.866
G1 F1200.000
G1 X34.426 Y-15.285 E6.03835
G1 X33.739 Y-15.704 E6.06529
G1 X33.629 Y-15.795 E6.06967
G1 X33.519 Y-15.885 E6.07351
G1 X33.410 Y-15.975 E6.07683
G1 X33.300 Y-16.066 E6.07961
G1 X33.191 Y-16.156 E6.08187
G1 X33.081 Y-16.247 E6.08360
G1 X32.972 Y-16.337 E6.08479
G1 E2.88479 F3600.00000
G1 F5760.000
G1 X33.081 Y-16.247 E2.80044
G1 E2.08479 F3600.00000
G92 E0
G1 Z0.400 F7200.000
G1 X32.321 Y-19.546
G1 Z0.200
G1 E4.00000 F3600.00000
G1 F1200.000
G1 X31.871 Y-19.996 E4.02720
G1 X31.799 Y-20.500 E4.04896
G1 X31.838 Y-20.771 E4.06067
G1 X32.593 Y-20.016 E4.10630
G1 E0.90630 F3600.00000
G1 F5760.000
G1 X31.838 Y-20.771 E0.27238
G1 X31.808 Y-20.561 E0.14630
G1 E0.10630 F3600.00000
G92 E0
G1 Z0.400 F7200.000
G1 X33.945 Y-25.368
G1 Z0.200
G1 E4.00000 F3600.00000
G1 F1200.000
G1 X34.298 Y-25.015 E4.01837
G1 X35.810 Y-24.142 E4.08270
G1 X34.477 Y-25.475 E4.15218
G1 X34.866 Y-25.725 E4.16922
G1 X37.323 Y-23.268 E4.29721
G1 X38.835 Y-22.395 E4.36154
G1 X35.255 Y-25.976 E4.54805
G1 X35.362 Y-26.044 E4.55274
G1 X35.720 Y-26.150 E4.56649
G1 X40.885 Y-20.985 E4.83554
G1 E1.63554 F3600.00000
G1 F5760.000
G1 X39.980 Y-21.890 E0.87554
G1 E0.83554 F3600.00000
G92 E0
G1 Z0.400 F7200.000
G1 X43.280 Y-23.704
G1 Z0.200
G1 E4.00000 F3600.00000
G1 F1200.000
G1 X41.863 Y-25.121 E4.07381
G1 X40.426 Y-26.044 E4.13670
G1 X40.248 Y-26.097 E4.14355
G1 X43.419 Y-22.926 E4.30873
G1 X43.743 Y-22.217 E4.33742
G1 X43.785 Y-21.920 E4.34847
G1 X39.343 Y-26.362 E4.57987
G1 X38.762 Y-26.533 E4.60219
G1 X38.533 Y-26.533 E4.61061
G1 X43.893 Y-21.174 E4.88980
G1 X43.989 Y-20.500 E4.91486
G1 X43.982 Y-20.445 E4.91690
G1 X37.894 Y-26.533 E5.23402
G1 X37.255 Y-26.533 E5.25756
G1 X43.901 Y-19.886 E5.60380
G1 X43.821 Y-19.328 E5.62460
G1 X36.709 Y-26.440 E5.99508
G1 X36.215 Y-26.295 E6.01405
G1 X43.737 Y-18.772 E6.40594
G1 X43.537 Y-18.333 E6.42371
G1 X41.835 Y-20.035 E6.51237
G1 X41.601 Y-19.630 E6.52961
G1 X43.337 Y-17.894 E6.62002
G1 X43.136 Y-17.455 E6.63779
G1 X41.367 Y-19.224 E6.72995
G1 X41.133 Y-18.819 E6.74719
G1 X42.894 Y-17.058 E6.83894
G1 X42.598 Y-16.715 E6.85564
G1 X40.899 Y-18.414 E6.94412
G1 X40.665 Y-18.009 E6.96136
G1 X42.301 Y-16.373 E7.04657
G1 X42.004 Y-16.030 E7.06327
G1 X40.431 Y-17.603 E7.14521
G1 X40.197 Y-17.198 E7.16245
G1 X41.652 Y-15.743 E7.23823
G1 X41.263 Y-15.493 E7.25527
G1 X39.963 Y-16.793 E7.32297
G1 X39.812 Y-16.530 E7.33413
G1 X39.279 Y-16.838 E7.35679
G1 X40.874 Y-15.243 E7.43986
G1 X40.484 Y-14.993 E7.45690
G1 X37.766 Y-17.711 E7.59848
G1 X37.387 Y-17.930 E7.61463
G1 X37.211 Y-17.627 E7.62754
G1 X40.006 Y-14.832 E7.77311
G1 X39.512 Y-14.687 E7.79208
G1 X36.977 Y-17.221 E7.92409
G1 X36.743 Y-16.816 E7.94133
G1 X39.018 Y-14.542 E8.05980
G1 X38.762 Y-14.467 E8.06962
G1 X38.453 Y-14.467 E8.08097
G1 X36.509 Y-16.411 E8.18224
G1 X36.275 Y-16.006 E8.19947
G1 X37.814 Y-14.467 E8.27963
G1 X37.175 Y-14.467 E8.30318
G1 X36.041 Y-15.600 E8.36222
G1 X35.807 Y-15.195 E8.37946
G1 X36.622 Y-14.381 E8.42187
G1 E5.22187 F3600.00000
G1 F5760.000
G1 X35.807 Y-15.195 E4.53817
G1 X35.872 Y-15.306 E4.46187
G1 E4.42187 F3600.00000
G92 E0
G1 Z0.400 F7200.000
G1 X-31.716 Y-1.171
G1 Z0.200
G1 E4.00000 F3600.00000
G1 F1200.000
G1 X-31.578 Y-0.214 E4.03442
G1 X-31.801 Y1.333 E4.09008
G1 X-31.984 Y1.368 E4.09673
G1 X-33.016 Y-0.420 E4.17025
G1 X-31.768 Y-1.141 E4.22160
G1 X-31.332 Y-1.574 F7200.000
G1 F1200.000
G1 X-31.137 Y-0.214 E4.27054
G1 X-31.410 Y1.690 E4.33904
G1 X-31.805 Y2.553 E4.37284
G1 X-33.613 Y-0.580 E4.50167
